icons/mobile/24/svg/email-shield-24.svg

<svg width="24" height="24" viewBox="0 0 24 24" fill="none" xmlns="http://www.w3.org/2000/svg">
<path fill-rule="evenodd" clip-rule="evenodd" d="M17.3779 10.9998C17.7739 11.0018 18.1677 11.1212 18.5107 11.3572C18.8537 11.5922 19.214 11.8144 19.582 12.0154C19.969 12.2274 20.3714 12.4197 20.7773 12.5887C21.6381 12.9477 22.1386 13.8797 21.9658 14.8035L21.6865 16.3055C21.5637 16.9692 21.354 17.5608 21.0586 18.0672C21.017 18.1386 20.9727 18.2082 20.9277 18.2762C20.2687 19.2761 19.3666 20.1464 18.3877 20.7264C18.0788 20.9102 17.7297 21.0008 17.3799 21.0008L17.3809 20.9998C17.028 20.9998 16.6734 20.9045 16.3564 20.7166C15.3855 20.1386 14.4871 19.2731 13.8311 18.2791C13.4691 17.7281 13.2133 17.0626 13.0713 16.2996L12.791 14.7742C12.62 13.8464 13.1179 12.9146 13.9746 12.5584C14.2815 12.4304 14.6037 12.283 14.9336 12.1121C15.3816 11.8831 15.8213 11.6255 16.2373 11.3475C16.5851 11.1143 16.982 10.9976 17.3779 10.9998ZM17.3691 12.5008C17.2663 12.5008 17.1632 12.5307 17.0703 12.5936C16.6053 12.9026 16.1181 13.1911 15.6211 13.4441C15.2551 13.6331 14.8957 13.7982 14.5527 13.9422C14.343 14.0293 14.2218 14.265 14.2656 14.5018L14.5459 16.0271C14.6499 16.5911 14.832 17.071 15.083 17.452C15.617 18.2599 16.3411 18.9616 17.124 19.4266C17.2021 19.4727 17.2913 19.4963 17.3799 19.4969L17.3779 12.4988C17.3747 12.4988 17.3714 12.4988 17.3682 12.4988L17.3691 12.5008Z" fill="black"/>
<path fill-rule="evenodd" clip-rule="evenodd" d="M4.63086 5.3914C7.85686 4.8714 11.1941 4.87322 14.4111 5.39922C15.7294 5.61297 16.729 6.64037 16.9512 7.93242L16.958 7.94316L16.9531 7.94511C16.9822 8.11824 16.999 8.29612 16.999 8.47734V9.52812C16.431 9.58812 15.8843 9.77839 15.4023 10.1014C15.3533 10.1344 15.299 10.1592 15.249 10.1912V8.99687L11.1387 11.532C10.6327 11.8439 10.0669 11.9988 9.49902 11.9988C8.93245 11.9986 8.36599 11.8437 7.86035 11.532L3.74902 8.9959V12.5242C3.74913 13.1911 4.23021 13.7718 4.86914 13.8758C6.97612 14.2198 9.13635 14.3095 11.2783 14.1775C11.2593 14.4635 11.2624 14.7538 11.3164 15.0457L11.3154 15.0447L11.4756 15.9197C10.8167 15.9627 10.1569 15.9998 9.49902 15.9998C7.85702 15.9998 6.20391 15.8673 4.58691 15.6023C3.08801 15.3593 1.99913 14.0641 1.99902 12.5242V8.48027C1.99902 8.29809 2.01519 8.11916 2.04492 7.94511L2.04102 7.94316L2.04688 7.93242C2.27337 6.63836 3.29039 5.60861 4.63086 5.3914ZM9.49902 6.75078C7.96707 6.75078 6.42311 6.87493 4.91016 7.11992C4.71296 7.15156 4.53183 7.22361 4.37402 7.32597L8.77832 10.0418C9.22325 10.3167 9.77577 10.3167 10.2207 10.0418L14.6279 7.32304C14.4791 7.22517 14.3108 7.15538 14.1289 7.12578C12.604 6.87679 11.047 6.75078 9.49902 6.75078Z" fill="black"/>
</svg>

<!-- This Source Code Form is subject to the terms of the Mozilla Public
   - License, v. 2.0. If a copy of the MPL was not distributed with this
   - file, You can obtain one at http://mozilla.org/MPL/2.0/. -->
<svg xmlns="http://www.w3.org/2000/svg" width="24" height="24" fill="none" viewBox="0 0 24 24">
    <path fill="#000" fill-rule="evenodd" d="M17.378 11c.396.002.79.121 1.133.357a12.5 12.5 0 0 0 2.266 1.232 2.01 2.01 0 0 1 1.189 2.214l-.28 1.502a5.5 5.5 0 0 1-.627 1.762 4 4 0 0 1-.131.21c-.66 1-1.561 1.87-2.54 2.45A1.97 1.97 0 0 1 17.38 21a2 2 0 0 1-1.024-.283c-.97-.578-1.869-1.444-2.525-2.438-.362-.55-.618-1.216-.76-1.98l-.28-1.525c-.171-.928.327-1.86 1.184-2.216.306-.128.629-.275.959-.446a13 13 0 0 0 1.303-.764c.348-.234.745-.35 1.14-.348m-.009 1.5a.53.53 0 0 0-.299.094c-.465.309-.952.597-1.449.85-.366.19-.725.354-1.068.498a.504.504 0 0 0-.287.56l.28 1.525c.104.564.286 1.044.537 1.425.534.808 1.258 1.51 2.041 1.975.078.046.167.07.256.07l-.002-6.998h-.01z" clip-rule="evenodd" />
    <path fill="#000" fill-rule="evenodd" d="M4.63 5.391a30.7 30.7 0 0 1 9.781.008 3.08 3.08 0 0 1 2.54 2.533l.007.011-.005.002q.046.26.046.532v1.051a3.5 3.5 0 0 0-1.597.573c-.049.033-.103.058-.153.09V8.997l-4.11 2.535a3.12 3.12 0 0 1-3.279 0L3.75 8.996v3.528c0 .667.481 1.248 1.12 1.352 2.107.344 4.267.434 6.41.302a3.4 3.4 0 0 0 .037.868v-.001l.16.875c-.66.043-1.32.08-1.977.08-1.642 0-3.295-.133-4.912-.398C3.089 15.359 2 14.064 2 12.524V8.48q0-.273.046-.535l-.004-.002.006-.01A3.12 3.12 0 0 1 4.63 5.39M9.5 6.751c-1.532 0-3.076.124-4.589.369a1.4 1.4 0 0 0-.536.206l4.404 2.716c.445.275.998.275 1.443 0l4.407-2.719a1.3 1.3 0 0 0-.5-.197A29 29 0 0 0 9.5 6.75" clip-rule="evenodd" />
</svg>
